components/Company/logos/logo-pubmatic.svg

<svg height="140" viewBox="0 0 400 140" width="400" xmlns="http://www.w3.org/2000/svg"><g fill="none" transform="translate(30 44)"><path d="m169.292845 42.9201331c-6.40599 0-8.26955-5.5906822-8.327787-10.6572379.058237-5.0665558 1.921797-10.657238 8.327787-10.657238s8.269551 5.5906822 8.327787 10.657238c0 5.124792-1.921797 10.6572379-8.327787 10.6572379zm1.980034-29.0599002c-4.193012 0-7.454243 1.4559069-10.016639 3.8435941v-11.93843599-3.37770382c0-1.10648919-.873544-1.98003328-1.980034-1.98003328h-4.484193c-1.106489 0-1.980033.87354409-1.980033 1.98003328v3.37770382 36.57237939 5.5906822c0 1.1064892.873544 1.9800333 1.980033 1.9800333h4.484193c1.10649 0 1.980034-.8735441 1.980034-1.9800333v-1.3976706h.116472c2.096506 2.5041598 4.775375 4.251248 9.84193 4.251248 9.026623 0 15.31614-8.2695508 15.31614-18.4026623.058236-10.249584-6.231281-18.5191348-15.257903-18.5191348zm-24.168054 4.4841931v-1.6306157c0-1.1064892-.873544-1.9800333-1.980033-1.9800333h-4.484193c-1.106489 0-1.980033.8735441-1.980033 1.9800333v1.6306157 15.2579035c0 4.2512479-1.921797 8.9101497-8.327787 8.9101497-4.309484 0-6.231281-2.0382695-6.231281-6.8718802v-18.9267887c0-1.1064892-.873545-1.9800333-1.980034-1.9800333h-4.484193c-1.106489 0-1.980033.8735441-1.980033 1.9800333v.8153078 20.4991681c0 10.1913477 6.87188 12.6955075 12.870216 12.6955075 4.775375 0 8.211315-1.8635608 10.074875-4.3094842h.116473v1.3976705.1164726c0 1.1064892.873544 1.9800333 1.980033 1.9800333h4.484193c1.106489 0 1.980034-.8735441 1.980034-1.9800333v-.1164726-29.467554zm-54.0432609 7.1048252h-9.2595674v-17.296173h8.9101497c5.3577371 0 9.0266226 2.0382696 9.0266226 8.9101498 0 4.8918469-2.7953414 8.3860232-8.6772049 8.3860232zm1.1064891-25.04159729h-12.3460898-4.6589018-.640599c-1.1064892 0-1.9800333.87354409-1.9800333 1.98003328v.640599 43.79367721 1.1064892c0 1.1064892.8735441 1.9800333 1.9800333 1.9800333h5.2995008c1.1064892 0 1.9800333-.8735441 1.9800333-1.9800333v-1.1064892-13.6272879h11.0066555c9.7836938 0 16.6555738-6.3477537 16.6555738-16.1314475.058237-9.5507488-5.648918-16.65557409-17.2961728-16.65557409z" fill="#4fc8ed"/><path d="m266.489185 32.3211314c-1.106489.5823628-2.50416.9900167-4.018303 1.2229618l-4.658902.9900166c-3.202995.640599-5.823627 1.5141431-5.823627 4.8336107 0 2.6206322 2.445923 4.3677204 5.474209 4.3677204 3.960067 0 9.026623-1.921797 9.026623-6.4642263zm8.502496 11.297837v4.3094842c0 1.1064892-.873545 1.9800333-1.980034 1.9800333h-2.038269-2.445924c-1.106489 0-1.980033-.8735441-1.980033-1.9800333v-1.1647255c-3.261231 2.6206323-7.104825 4.0183029-11.472546 4.0183029-6.697171 0-11.938436-4.251248-11.938436-11.0648919 0-6.8718802 5.47421-9.9584027 10.715474-11.0066556l3.552413-.6988352c3.086523-.640599 7.046589-1.3394343 9.201331-2.0965059v-1.0482529c0-3.4941764-2.97005-4.4259567-6.697171-4.4259567-4.309484 0-6.173045 1.0482529-6.638935 4.3677204-.058237.3494177-.232945.5823628-.46589.8735441v.0582363c-.407654.4076539-.931781.640599-1.514144.640599l-4.484193-.2329451c-1.572379-.1164725-1.86356-.9317803-1.805324-1.9800333s0 0 0-.0582362c.757072-7.2212979 7.687188-10.0748752 14.966722-10.0748752 7.570716 0 15.141431 1.5141431 15.141431 11.530782v18.0532446zm72.504159-7.1048253h-3.552412c-1.339435 0-2.096506.8735441-2.795341 2.1547421l-.058237.1747088c-1.455907 2.4459235-3.90183 4.1347754-6.697171 4.1347754-6.056573 0-9.143095-5.124792-9.143095-10.657238 0-5.4742096 3.086522-10.6572379 9.143095-10.6572379 2.795341 0 5.241264 1.6306157 6.697171 4.1347754l.058237.1747088c.698835 1.281198 1.455906 2.0965058 2.795341 2.0965058h3.552412c1.688852 0 2.445924-1.1064892 2.096506-2.5041597v-.0582363c-.349418-1.3976705-.873544-2.6788685-1.514143-3.843594l-.116473-.2329451c-2.387687-4.1930116-6.464226-7.5707155-13.685524-7.5707155-11.414309 0-18.053244 7.9201332-18.053244 18.4026623s6.580699 18.4026622 18.053244 18.4026622c7.221298 0 11.297837-3.3194675 13.685524-7.5707155l.116473-.2329451c.640599-1.1647254 1.164725-2.4459234 1.514143-3.843594v-.0582362c.349418-1.3394343-.407654-2.4459235-2.096506-2.4459235zm-35.524126-31.797005c0-2.562396-1.921797-4.60066555-4.367721-4.60066555-2.387687 0-4.36772 2.03826955-4.36772 4.60066555 0 2.56239601 1.980033 4.60066556 4.36772 4.60066556 2.387688 0 4.367721-2.09650582 4.367721-4.60066556zm-.116473 11.9966722c0-1.1064892-.873544-1.9800333-1.980033-1.9800333h-4.484193c-1.106489 0-1.980033.8735441-1.980033 1.9800333v31.2146423c0 1.1064892.873544 1.9800333 1.980033 1.9800333h4.484193c1.106489 0 1.980033-.8735441 1.980033-1.9800333zm-14.850249-1.9800333h-4.309485v-10.48252908c0-1.10648918-.873544-1.98003328-1.980033-1.98003328h-4.484193c-1.106489 0-1.980033.8735441-1.980033 1.98003328v10.48252908h-4.367721c-.873544 0-1.572379.6988353-1.572379 1.5723794v3.5524127c0 .873544.698835 1.5723793 1.572379 1.5723793h4.367721v26.4392679c0 1.1064892.873544 1.9800333 1.980033 1.9800333h4.484193c1.106489 0 1.980033-.8735441 1.980033-1.9800333v-26.4392679h4.309485c.873544 0 1.630615-.6988353 1.630615-1.5723793v-3.5524127c-.058236-.8735441-.757071-1.5723794-1.630615-1.5723794zm-58.643927 32.6705491v.5241265c0 1.1064892-.873544 1.9800333-1.980033 1.9800333h-4.950084c-1.106489 0-1.980033-.8735441-1.980033-1.9800333v-38.84359403-.46589018h-.116472l-4.018303 17.06322791-3.377704 14.3843594-1.805325 7.6289518-.058236.2329451c-.232945 1.0482529-.873544 1.9800333-1.980033 1.9800333h-5.765391c-1.048253-.0582363-1.747088-.9317804-1.980033-1.9800333v-.0582363l-9.143095-38.78535773h-.232945v38.37770383.4658902c0 1.1064892-.873544 1.9800333-1.980034 1.9800333h-5.008319c-1.106489 0-1.980033-.8735441-1.980033-1.9800333v-45.54076541-.05823627c.058236-1.04825292.93178-1.92179701 1.980033-1.92179701h10.715474.058236c.873545 0 1.57238.640599 1.805325 1.39767055v.11647254.05823628l8.677205 36.74708822h.116472l8.677205-36.74708822c.174709-.8735441.93178-1.57237937 1.86356-1.63061564h.058237 10.133111.116473c1.106489 0 1.980033.87354409 1.980033 1.921797v45.13311146z" fill="#000"/><path d="m.29118136 49.9084859h49.44259564v-49.50083199h-49.44259564z" fill="#4fc8ed"/></g></svg>

<?xml version="1.0" encoding="UTF-8"?>
<svg width="400px" height="140px" viewBox="0 0 400 140" version="1.1" xmlns="http://www.w3.org/2000/svg" xmlns:xlink="http://www.w3.org/1999/xlink">
    <title>Artboard</title>
    <g id="Artboard" stroke="none" stroke-width="1" fill="none" fill-rule="evenodd">
        <g id="pubmatic-vector-logo" transform="translate(30.000000, 44.000000)" fill-rule="nonzero">
            <path d="M169.292845,42.9201331 C162.886855,42.9201331 161.023295,37.3294509 160.965058,32.2628952 C161.023295,27.1963394 162.886855,21.6056572 169.292845,21.6056572 C175.698835,21.6056572 177.562396,27.1963394 177.620632,32.2628952 C177.620632,37.3876872 175.698835,42.9201331 169.292845,42.9201331 L169.292845,42.9201331 Z M171.272879,13.8602329 C167.079867,13.8602329 163.818636,15.3161398 161.25624,17.703827 L161.25624,5.76539101 L161.25624,5.76539101 L161.25624,2.38768719 C161.25624,1.281198 160.382696,0.40765391 159.276206,0.40765391 L154.792013,0.40765391 C153.685524,0.40765391 152.81198,1.281198 152.81198,2.38768719 L152.81198,5.76539101 L152.81198,5.76539101 L152.81198,42.3377704 L152.81198,42.3377704 L152.81198,47.9284526 C152.81198,49.0349418 153.685524,49.9084859 154.792013,49.9084859 L159.276206,49.9084859 C160.382696,49.9084859 161.25624,49.0349418 161.25624,47.9284526 L161.25624,46.530782 L161.372712,46.530782 C163.469218,49.0349418 166.148087,50.78203 171.214642,50.78203 C180.241265,50.78203 186.530782,42.5124792 186.530782,32.3793677 C186.589018,22.1297837 180.299501,13.8602329 171.272879,13.8602329 L171.272879,13.8602329 Z M147.104825,18.344426 L147.104825,18.344426 L147.104825,16.7138103 C147.104825,15.6073211 146.231281,14.733777 145.124792,14.733777 L140.640599,14.733777 C139.53411,14.733777 138.660566,15.6073211 138.660566,16.7138103 L138.660566,18.344426 L138.660566,18.344426 L138.660566,33.6023295 C138.660566,37.8535774 136.738769,42.5124792 130.332779,42.5124792 C126.023295,42.5124792 124.101498,40.4742097 124.101498,35.640599 L124.101498,16.7138103 C124.101498,15.6073211 123.227953,14.733777 122.121464,14.733777 L117.637271,14.733777 C116.530782,14.733777 115.657238,15.6073211 115.657238,16.7138103 L115.657238,17.5291181 L115.657238,17.5291181 L115.657238,38.0282862 C115.657238,48.2196339 122.529118,50.7237937 128.527454,50.7237937 C133.302829,50.7237937 136.738769,48.8602329 138.602329,46.4143095 L138.718802,46.4143095 L138.718802,47.81198 L138.718802,47.81198 L138.718802,47.9284526 C138.718802,49.0349418 139.592346,49.9084859 140.698835,49.9084859 L145.183028,49.9084859 C146.289517,49.9084859 147.163062,49.0349418 147.163062,47.9284526 L147.163062,47.81198 L147.163062,47.81198 L147.163062,18.344426 L147.104825,18.344426 Z M93.0615641,25.4492512 L83.8019967,25.4492512 L83.8019967,8.1530782 L92.7121464,8.1530782 C98.0698835,8.1530782 101.738769,10.1913478 101.738769,17.063228 C101.738769,21.9550749 98.9434276,25.4492512 93.0615641,25.4492512 L93.0615641,25.4492512 Z M94.1680532,0.40765391 L81.8219634,0.40765391 L77.1630616,0.40765391 L76.5224626,0.40765391 C75.4159734,0.40765391 74.5424293,1.281198 74.5424293,2.38768719 L74.5424293,3.02828619 L74.5424293,46.8219634 L74.5424293,47.9284526 C74.5424293,49.0349418 75.4159734,49.9084859 76.5224626,49.9084859 L81.8219634,49.9084859 C82.9284526,49.9084859 83.8019967,49.0349418 83.8019967,47.9284526 L83.8019967,46.8219634 L83.8019967,46.8219634 L83.8019967,33.1946755 L94.8086522,33.1946755 C104.592346,33.1946755 111.464226,26.8469218 111.464226,17.063228 C111.522463,7.5124792 105.815308,0.40765391 94.1680532,0.40765391 L94.1680532,0.40765391 Z" id="Fill-1" fill="#4FC8ED"></path>
            <path d="M266.489185,32.3211314 C265.382696,32.9034942 263.985025,33.3111481 262.470882,33.5440932 L257.81198,34.5341098 C254.608985,35.1747088 251.988353,36.0482529 251.988353,39.3677205 C251.988353,41.9883527 254.434276,43.7354409 257.462562,43.7354409 C261.422629,43.7354409 266.489185,41.8136439 266.489185,37.2712146 L266.489185,32.3211314 Z M274.991681,43.6189684 L274.991681,43.6189684 L274.991681,47.9284526 C274.991681,49.0349418 274.118136,49.9084859 273.011647,49.9084859 L270.973378,49.9084859 L270.973378,49.9084859 L270.973378,49.9084859 L268.527454,49.9084859 C267.420965,49.9084859 266.547421,49.0349418 266.547421,47.9284526 L266.547421,46.7637271 C266.547421,46.7637271 266.547421,46.7637271 266.547421,46.7637271 C263.28619,49.3843594 259.442596,50.78203 255.074875,50.78203 C248.377704,50.78203 243.136439,46.530782 243.136439,39.7171381 C243.136439,32.8452579 248.610649,29.7587354 253.851913,28.7104825 L257.404326,28.0116473 C260.490849,27.3710483 264.450915,26.672213 266.605657,25.9151414 L266.605657,24.8668885 C266.605657,21.3727121 263.635607,20.4409318 259.908486,20.4409318 C255.599002,20.4409318 253.735441,21.4891847 253.269551,24.8086522 L253.269551,24.8086522 C253.211314,25.1580699 253.036606,25.391015 252.803661,25.6821963 L252.803661,25.7404326 L252.803661,25.7404326 C252.396007,26.1480865 251.87188,26.3810316 251.289517,26.3810316 L246.805324,26.1480865 C245.232945,26.031614 244.941764,25.2163062 245,24.1680532 L245,24.1680532 C245,24.1680532 245,24.1680532 245,24.109817 L245,24.109817 L245,24.109817 C245.757072,16.8885191 252.687188,14.0349418 259.966722,14.0349418 C267.537438,14.0349418 275.108153,15.5490849 275.108153,25.5657238 L275.108153,43.6189684 L274.991681,43.6189684 Z M347.49584,36.5141431 L343.943428,36.5141431 C342.603993,36.5141431 341.846922,37.3876872 341.148087,38.6688852 L341.08985,38.843594 C339.633943,41.2895175 337.18802,42.9783694 334.392679,42.9783694 C328.336106,42.9783694 325.249584,37.8535774 325.249584,32.3211314 C325.249584,26.8469218 328.336106,21.6638935 334.392679,21.6638935 C337.18802,21.6638935 339.633943,23.2945092 341.08985,25.7986689 L341.148087,25.9733777 C341.846922,27.2545757 342.603993,28.0698835 343.943428,28.0698835 L347.49584,28.0698835 C349.184692,28.0698835 349.941764,26.9633943 349.592346,25.5657238 L349.592346,25.5074875 C349.242928,24.109817 348.718802,22.828619 348.078203,21.6638935 L347.96173,21.4309484 C345.574043,17.2379368 341.497504,13.8602329 334.276206,13.8602329 C322.861897,13.8602329 316.222962,21.7803661 316.222962,32.2628952 C316.222962,42.7454243 322.803661,50.6655574 334.276206,50.6655574 C341.497504,50.6655574 345.574043,47.3460899 347.96173,43.0948419 L348.078203,42.8618968 C348.718802,41.6971714 349.242928,40.4159734 349.592346,39.0183028 L349.592346,38.9600666 C349.941764,37.6206323 349.184692,36.5141431 347.49584,36.5141431 L347.49584,36.5141431 Z M311.971714,4.7171381 C311.971714,2.1547421 310.049917,0.116472546 307.603993,0.116472546 C305.216306,0.116472546 303.236273,2.1547421 303.236273,4.7171381 C303.236273,7.27953411 305.216306,9.31780366 307.603993,9.31780366 C309.991681,9.31780366 311.971714,7.22129784 311.971714,4.7171381 L311.971714,4.7171381 Z M311.855241,16.7138103 C311.855241,15.6073211 310.981697,14.733777 309.875208,14.733777 L305.391015,14.733777 C304.284526,14.733777 303.410982,15.6073211 303.410982,16.7138103 L303.410982,47.9284526 C303.410982,49.0349418 304.284526,49.9084859 305.391015,49.9084859 L309.875208,49.9084859 C310.981697,49.9084859 311.855241,49.0349418 311.855241,47.9284526 L311.855241,16.7138103 Z M297.004992,14.733777 L292.695507,14.733777 L292.695507,4.25124792 C292.695507,3.14475874 291.821963,2.27121464 290.715474,2.27121464 L286.231281,2.27121464 C285.124792,2.27121464 284.251248,3.14475874 284.251248,4.25124792 L284.251248,14.733777 L279.883527,14.733777 C279.009983,14.733777 278.311148,15.4326123 278.311148,16.3061564 L278.311148,19.8585691 C278.311148,20.7321131 279.009983,21.4309484 279.883527,21.4309484 L284.251248,21.4309484 L284.251248,47.8702163 C284.251248,48.9767055 285.124792,49.8502496 286.231281,49.8502496 L290.715474,49.8502496 C291.821963,49.8502496 292.695507,48.9767055 292.695507,47.8702163 L292.695507,21.4309484 L297.004992,21.4309484 C297.878536,21.4309484 298.635607,20.7321131 298.635607,19.8585691 L298.635607,16.3061564 C298.577371,15.4326123 297.878536,14.733777 297.004992,14.733777 L297.004992,14.733777 Z M238.361065,47.4043261 L238.361065,47.4043261 L238.361065,47.9284526 C238.361065,49.0349418 237.487521,49.9084859 236.381032,49.9084859 L231.430948,49.9084859 C230.324459,49.9084859 229.450915,49.0349418 229.450915,47.9284526 L229.450915,9.08485857 L229.450915,9.08485857 L229.450915,8.61896839 L229.334443,8.61896839 L225.31614,25.6821963 L225.31614,25.6821963 L221.938436,40.0665557 L220.133111,47.6955075 L220.133111,47.6955075 L220.074875,47.9284526 C219.84193,48.9767055 219.201331,49.9084859 218.094842,49.9084859 L218.094842,49.9084859 L212.329451,49.9084859 L212.329451,49.9084859 C211.281198,49.8502496 210.582363,48.9767055 210.349418,47.9284526 L210.349418,47.8702163 L210.349418,47.8702163 L201.206323,9.08485857 L200.973378,9.08485857 L200.973378,47.4625624 L200.973378,47.4625624 L200.973378,47.9284526 C200.973378,49.0349418 200.099834,49.9084859 198.993344,49.9084859 L193.985025,49.9084859 C192.878536,49.9084859 192.004992,49.0349418 192.004992,47.9284526 L192.004992,2.38768719 C192.004992,2.38768719 192.004992,2.38768719 192.004992,2.38768719 L192.004992,2.32945092 L192.004992,2.32945092 C192.063228,1.281198 192.936772,0.40765391 193.985025,0.40765391 L193.985025,0.40765391 L204.700499,0.40765391 L204.758735,0.40765391 L204.758735,0.40765391 C205.63228,0.40765391 206.331115,1.04825291 206.56406,1.80532446 L206.56406,1.80532446 L206.56406,1.921797 C206.56406,1.921797 206.56406,1.98003328 206.56406,1.98003328 L215.241265,38.7271215 L215.357737,38.7271215 L224.034942,1.98003328 C224.209651,1.10648918 224.966722,0.40765391 225.898502,0.349417637 L225.898502,0.349417637 L225.956739,0.349417637 L236.08985,0.349417637 L236.206323,0.349417637 C237.312812,0.349417637 238.186356,1.22296173 238.186356,2.27121464 L238.186356,2.27121464 L238.186356,47.4043261 L238.361065,47.4043261 Z" id="Fill-3" fill="#000000"></path>
            <polygon id="Fill-6" fill="#4FC8ED" points="0.291181364 49.9084859 49.733777 49.9084859 49.733777 0.40765391 0.291181364 0.40765391"></polygon>
        </g>
    </g>
</svg>
